!!!OTL: Back Bay Hill
!!!ONM: 101.
**kern
*clefG2
*k[b-e-a-]
*E-:
*M3/4
*MM80
{4b-
=1
4e-
4g
4b-
=2
4e-
4g
4b-
=3
4a-
4g
4f
=4
4.e-
8r}
{4b-
=5
4ee-
4b-
4cc
=6
(4b-
4g)
4f
=7
(4g
4f)
4a-
=8
4.b-
8r}
{4b-
=9
4ee-
4b-
4cc
=10
4b-
4a-
8g
8g
=11
4a-
4f
4cc
=12
4.b-
8r}
{8e-
8e-
=13
8g
4.g
4cc
=14
8b-
4.g
4e-
=15
2g
4b-
=16
4g}
=||
{4f
4e-
=17
4.b-
8b-
4b-
=18
4g
4f
4e-}
=19
{4.cc
8cc
4cc
=20
4a-
4g
4f}
=21
{4.g
8a-
4b-
=22
4cc
4dd
4ee-}
=23
{4dd
4cc
4dd
=24
4.ee-
8r}
==
*-
!!!CNT: Folksongs of Maritime Canada
!!!MRD: 1928///-1932///
!!!OCL: Helen Creighton
!!!YOR: Songs and Ballads from Nova Scotia
!!!PPR: J.M. Dent & Sons, Limited
!!!PPP: Toronto, Canada
!!!PDT: 1932///
!!!reprint: Dover Publications, 1992: ISBN 0-486-21703-5
!!!ENC1: Craig Stuart Sapp (music and bibliographic data)                       
!!!ENC2: Marcus Pearce (phrase markings and key designations)                   
!!!ENC3: Darrell Conklin (phrase markings and key designations)   
!!!END: 2002/04/10/
!!!EEV: 2004/06/05
!!!MPN: Mr. Frank Faulkner
!!!PPG: 217
!!!EFL: 102/152
!!!ARE: Canada; Nova Scotia
!!!verses: 5
!!!VTS: 1980581265
